X: 22892
T: Lark's March, The
R: jig
M: 6/8
K: Dmajor
AFE F3|DED DFB|AFE FAE|DFA B2 d|
AFE F3|DED D2 f|gfe fdB|AFA B3:|
|:A2 d fdB|ABA AFB|A2 d fdB|AFA B2 d|
A2 d fdB|ABA Aef|gfe fdB|AFA B3:|
|:Add fdd|edd fdB|Add fdB|AFA B2 A|
Add fdB|ABA Aef|gfe fdB|AFA B2 d:|
|:DFA dAF|DFA BAF|DFA dAF|DFA B2 A|
DFA d2 A|dfe def|gfe fdB|AFA B3:|
|:d3 def|AFF FED|ded def|~a3 A2 B|
d2 d def|ded def|gfe fdB|1 AFA B3:|2 AFA B2||
AFE F3|DED D2 B|AFE F3|DFA BdB|
AFE F3|DED D2 f|gfe fdB|1 AFA BdB:|2 AFA B2 A||
|:d2 e fed|AFA DFA|d2 e fed|AFA B2 A|
def edB|BAF ABd|faf edB|1 AFA B2 A:|2 AFA B2 B||
|:ABd fdd|ede fdB|ABd fed|edA BAF|
A2 d fdd|ede fed|faf g2 e|edA BdB:|
|:DFA dAF|DFA BGE|DFA d2 F|GEF GFE|
DFA d2 e|edc def|gfe fdB|AFA B2 B:|
|:d2 d def|A3 AFA|e3 ede|fed BAB|
d2 d def|A3 AFA|e3 ede|1 fdc d2 A:|2 fdc d2||

